X:1
T:Calling, Gently Calling
T:Calling, Gently Calling
T:John Jackson Hood
T:J. M. Lyons, 1880
T:Public Domain Courtesy of the Cyber Hymnal™
C:John Jackson Hood
Z:Public Domain
Z:Courtesy of the Cyber Hymnal™
%%score ( 1 2 ) ( 3 4 )
L:1/8
Q:1/4=100
M:4/4
K:D
V:1 treble 
V:2 treble 
V:3 bass 
V:4 bass 
V:1
 [FA]>[FA] | [FA]2 [DF]2 D2 [DF]2 | [FA]4 [Fd]2 [Fd]>[Fd] | [Gd]2 [GB]2 G2 [GB]2 | %4
w: 1.~In the|mid- night si- lent|watch- es, What a|won- drous voice I|
w: 2.~Bless- èd|Lord, O great Cre-|at- or, How I|wond- er, can it|
w: 3.~There a-|gain I hear Thee|call- ing, In such|ten- der ac- cents|
w: 4.~Speak, O|Lord, Thy ser- vant|hear- eth; Help Thou|me to un- der-|
 [FA]6 [FA]>[FA] | [FA]2 [DF]2 D2 [DF]2 | [FA]4 [Fd]2 [Fd]>[Fd] | [Ec]2 [EA]2 [E^G]2 [DB]2 | %8
w: hear! Charm- ing|ac- cents, sweet and|ten- der, Mu- sic-|like sa- lute mine|
w: be? He that|built the star- ry|man- sion, Doth re-|gard a child like|
w: near; Here am|I! oh, yes, I|lis- ten; Speak, and|I will glad- ly|
w: stand; Here I|wait to do Thy|er- rands, And o-|bey, Lord, Thy com-|
 [CA]6 z2 ||"^Refrain" [Gc]3 [Gc] [GB]2 [Gc]2 | [Fd]4 [FA]4 | [EG]3 [DF] [CE]2 [EG]2 | %12
w: ear.||||
w: me.||||
w: hear.||||
w: mand.||||
 [DF]3 [EG] [FA]4 | [Gc]3 [Gc] [GB]2 [Gc]2 | [Fd]4 !fermata![FA]2 [DF]2 | [FA]3 [EG] [DF]2 [CE]2 | %16
w: ||||
w: ||||
w: ||||
w: ||||
 D6 |] %17
w: |
w: |
w: |
w: |
V:2
 x2 | x4 D2 x2 | x8 | x4 G2 x2 | x8 | x4 D2 x2 | x8 | x8 | x8 || x8 | x8 | x8 | x8 | x8 | x8 | x8 | %16
 D6 |] %17
V:3
 [D,D]>[D,D] | [D,D]2 [D,A,]2 [D,F,]2 [D,A,]2 | [D,D]4 [D,A,]2 [D,A,]>[D,A,] | %3
w: |||
 [G,B,]2 [G,D]2 [G,B,]2 [G,D]2 | [D,D]6 [D,D]>[D,D] | [D,D]2 [D,A,]2 [D,F,]2 [D,A,]2 | %6
w: |||
 [D,D]4 [D,A,]2 [D,A,]>[D,A,] | [E,A,]2 [E,C]2 [E,B,]2 [E,^G,]2 | [A,,A,]6 z2 || %9
w: |||
 [A,E]3 [A,E] [A,E]2 [A,E]2 | [D,D]4 [D,D]4 | [A,C]3 A, [A,,A,]2 [A,,A,]2 | [D,A,]3 [D,A,] [D,D]4 | %13
w: Call- ing, gent- ly|call- ing,|Won- drous ac- cents,|sweet and mild,|
 [A,E]3 [A,E] [A,E]2 [A,E]2 | [D,D]4 !fermata![D,D]2 [D,A,]2 | [A,,A,]3 [A,,A,] [A,,A,]2 [A,,A,]2 | %16
w: Call- ing, for He|loves me; He|loves a lit- tle|
 [D,F,]6 |] %17
w: child.|
V:4
 x2 | x8 | x8 | x8 | x8 | x8 | x8 | x8 | x8 || x8 | x8 | x3 A, x4 | x8 | x8 | x8 | x8 | x6 |] %17

